svg/icon/link.svg

<svg xmlns="http://www.w3.org/2000/svg" xmlns:xlink="http://www.w3.org/1999/xlink" width="32" height="32" viewBox="0 0 32 32"><defs><linearGradient id="link-c" x1="50%" x2="50%" y1="0%" y2="100%"><stop offset="0%" stop-color="#FFF" stop-opacity=".5"/><stop offset="100%" stop-opacity=".5"/></linearGradient><circle id="link-b" cx="16" cy="15" r="15"/><filter id="link-a" width="111.7%" height="111.7%" x="-5.8%" y="-4.2%" filterUnits="objectBoundingBox"><feOffset dy=".5" in="SourceAlpha" result="shadowOffsetOuter1"/><feGaussianBlur in="shadowOffsetOuter1" result="shadowBlurOuter1" stdDeviation=".5"/><feComposite in="shadowBlurOuter1" in2="SourceAlpha" operator="out" result="shadowBlurOuter1"/><feColorMatrix in="shadowBlurOuter1" values="0 0 0 0 0 0 0 0 0 0 0 0 0 0 0 0 0 0 0.199473505 0"/></filter><path id="link-e" d="M15,17.6180533 L15,20 C15,20.5522847 15.4477153,21 16,21 C16.5522847,21 17,20.5522847 17,20 L17,17.6180533 C17.3068747,17.343393 17.5,16.9442499 17.5,16.5 C17.5,15.6715729 16.8284271,15 16,15 C15.1715729,15 14.5,15.6715729 14.5,16.5 C14.5,16.9442499 14.6931253,17.343393 15,17.6180533 Z M10,13.0000001 C10,12.3535523 10,11.6868856 10,11 C10,7.6862915 12.6862915,5 16,5 C19.3137085,5 22,7.6862915 22,11 C22,11.5522309 22,12.2188799 22,12.9999473 C22.5522847,13 23,13.4477153 23,14 L23,22 C23,22.5522847 22.5522847,23 22,23 L10,23 C9.44771525,23 9,22.5522847 9,22 L9,14 C9,13.4477153 9.44771525,13 10,13 Z M22,13 L16,13 L12.5,13 C12.5,13.0588167 12.5,12.4254834 12.5,11.1 C12.5,9.1117749 14.0670034,7.5 16,7.5 C17.9329966,7.5 19.5,9.1117749 19.5,11.1 C19.5,11.7305436 19.5,12.3638769 19.5,13 L16,13 Z"/><filter id="link-d" width="125%" height="119.4%" x="-12.5%" y="-6.9%" filterUnits="objectBoundingBox"><feOffset dy=".5" in="SourceAlpha" result="shadowOffsetOuter1"/><feGaussianBlur in="shadowOffsetOuter1" result="shadowBlurOuter1" stdDeviation=".5"/><feColorMatrix in="shadowBlurOuter1" values="0 0 0 0 0 0 0 0 0 0 0 0 0 0 0 0 0 0 0.204257246 0"/></filter></defs><g fill="none" fill-rule="evenodd"><use fill="#000" filter="url(#link-a)" xlink:href="#link-b"/><use fill="#01A6FB" xlink:href="#link-b"/><use fill="url(#link-c)" style="mix-blend-mode:soft-light" xlink:href="#link-b"/><circle cx="16" cy="15" r="14.5" stroke="#000" stroke-opacity=".097"/><g><use fill="#000" filter="url(#link-d)" xlink:href="#link-e"/><use fill="#FFF" xlink:href="#link-e"/></g></g></svg>

<svg xmlns="http://www.w3.org/2000/svg" xmlns:xlink="http://www.w3.org/1999/xlink" width="32" height="32" viewBox="0 0 32 32"><defs><linearGradient id="c" x1="50%" x2="50%" y1="0%" y2="100%"><stop offset="0%" stop-color="#FFF" stop-opacity=".5"/><stop offset="100%" stop-opacity=".5"/></linearGradient><circle id="b" cx="16" cy="15" r="15"/><filter id="a" width="111.7%" height="111.7%" x="-5.8%" y="-4.2%" filterUnits="objectBoundingBox"><feOffset dy=".5" in="SourceAlpha" result="shadowOffsetOuter1"/><feGaussianBlur in="shadowOffsetOuter1" result="shadowBlurOuter1" stdDeviation=".5"/><feComposite in="shadowBlurOuter1" in2="SourceAlpha" operator="out" result="shadowBlurOuter1"/><feColorMatrix in="shadowBlurOuter1" values="0 0 0 0 0 0 0 0 0 0 0 0 0 0 0 0 0 0 0.199473505 0"/></filter><path id="e" d="M15 17.618V20a1 1 0 0 0 2 0v-2.382a1.5 1.5 0 1 0-2 0zM10 13v-2a6 6 0 1 1 12 0v2a1 1 0 0 1 1 1v8a1 1 0 0 1-1 1H10a1 1 0 0 1-1-1v-8a1 1 0 0 1 1-1zm12 0h-9.5v-1.9c0-1.988 1.567-3.6 3.5-3.6s3.5 1.612 3.5 3.6V13H16z"/><filter id="d" width="125%" height="119.4%" x="-12.5%" y="-6.9%" filterUnits="objectBoundingBox"><feOffset dy=".5" in="SourceAlpha" result="shadowOffsetOuter1"/><feGaussianBlur in="shadowOffsetOuter1" result="shadowBlurOuter1" stdDeviation=".5"/><feColorMatrix in="shadowBlurOuter1" values="0 0 0 0 0 0 0 0 0 0 0 0 0 0 0 0 0 0 0.204257246 0"/></filter></defs><g fill="none" fill-rule="evenodd"><use fill="#000" filter="url(#a)" xlink:href="#b"/><use fill="#01A6FB" xlink:href="#b"/><use fill="url(#c)" style="mix-blend-mode:soft-light" xlink:href="#b"/><circle cx="16" cy="15" r="14.5" stroke="#000" stroke-opacity=".097"/><use fill="#000" filter="url(#d)" xlink:href="#e"/><use fill="#FFF" xlink:href="#e"/></g></svg>
